X:1
T:Title
%%score ( 1 2 ) ( 3 4 )
L:1/8
Q:1/4=90
M:6/8
K:D
V:1 treble nm="Grand Piano, Soprano"
V:2 treble 
V:3 bass nm="Choir Pad, Go Work for the Harvest Is Near"
V:4 bass 
V:1
 D/E/[DF][DF] [DF][DF][CE] | D [CA]2- [CA]2- [CA]/ z/ | [EG]/F/[CE][CE] [DF][EG][FA] | %3
 [EG] [DF]2- [DF]2- [DF]/ z/ | [DF]/[EG]/[FA][FA] [FA][FA][EG] | [DF][DB][GB] [Ac] [Ad]2 | %6
 [Ac]/[GB]/[FA][Fd] [Fd][Ec][DB] | [Ec] [Fd]2- [Fd]2- [Fd]/ z/ | [FA]/[FA]/ [GB]2- [GB]3 | %9
 [Bd]/[GB]/ [FA]2- [FA]2- [FA]/ z/ | [EG]/[DF]/[CE][CE] [DF][EG][FA] | [GB] A2- A D2 | %12
 [FA]/[FA]/ [GB]2- [GB]3 | [Bd]/[GB]/ [FA]2- [FA]2- [FA]/ z/ | [EG]/[DF]/[CE][CE] [DF][EG][DF] | %15
 [CE] D2- D3- | D3 z3 |] %17
V:2
 x6 | x6 | x6 | x6 | x6 | x6 | x6 | x6 | x6 | x6 | x6 | z F2- F2- F/ z/ | x6 | x6 | x6 | x6 | x6 |] %17
V:3
 F,/G,/[D,A,][D,A,] [D,A,][D,A,][D,G,] | [D,F,] [A,,E,]2- [A,,E,]2- [A,,E,]/ z/ | %2
w: By~William~B~Bentley * * * * * *||
 [A,,A,]/[A,,A,]/[A,,A,][A,,A,] [A,,A,][A,,A,][A,,A,] | [A,,A,] [D,A,]2- [D,A,]2- [D,A,]/ z/ | %4
w: ||
 [D,A,]/[D,A,]/[D,D][D,D] [D,D][D,D][D,A,] | [D,D][G,D][G,D] [G,E] [F,D]2 | %6
w: ||
 [G,D]/[G,D]/[A,D]A, A,[A,,A,][A,,A,] | [A,,A,] [D,A,]2- [D,A,]2- [D,A,]/ z/ | %8
w: ||
 z3 [A,,G,] .[A,,G,]2 | z3 [D,A,] [D,A,]2 | [C,A,]/[D,A,]/[A,,A,][A,,A,] [A,,A,][A,,A,][A,,A,] | %11
w: |||
 [A,,A,] [D,A,]2- [D,A,]2- [D,A,]/ z/ | z3 [A,,G,] .[A,,G,]2 | z3 [D,A,] [D,A,]2 | %14
w: |||
 [C,A,]/[D,A,]/[A,,A,][A,,A,] [A,,A,][A,,A,][A,,A,] | [A,,A,] [D,F,]2- [D,F,]3- | [D,F,]3 z3 |] %17
w: |||
V:4
 .D,3 z3 | x6 | x6 | x6 | x6 | x6 | x6 | x6 | x6 | x6 | x6 | x6 | x6 | x6 | x6 | x6 | x6 |] %17

